**kern	**kern	**kern	**dynam	**kern	**dynam	**mxhm
*part4	*part3	*part2	*part2	*part1	*part1	*part1
*staff4	*staff3	*staff2	*	*staff1	*	*
*I"Cello	*I"Viola	*I"2nd Violin	*	*I"1st Violin	*	*
*clefF4	*clefC3	*clefG2	*	*clefG2	*	*
*k[b-]	*k[b-]	*k[b-]	*	*k[b-]	*	*
*F:	*F:	*F:	*	*F:	*	*
*M3/4	*M3/4	*M3/4	*	*M3/4	*	*
!	!	!	!	!LO:TX:a:B:t=Vivace	!	!
4r	4r	[4c	.	4r	.	.F.I
=1	=1	=1	=1	=1	=1	=1
!	!LO:TX:a:Bi:t=p	!	!	!	!	!
!LO:TX:b:Bi:t=p	!LO:TX:a:Bi:t=p	!	!	!LO:TX:a:Bi:t=p	!	!
4FF'	2.F	2c]	.	4r	.	.
4r	.	.	.	[2a	.	I6
4AA'	.	[4c	.	.	.	.
=2	=2	=2	=2	=2	=2	=2
4BB-'	2.E	2c]	.	4a]	.	V2(6)
4r	.	.	.	[2g	.	V
4C'	.	[4c	.	.	.	.
=3	=3	=3	=3	=3	=3	=3
4D	2.F	2c]	.	4g]	.	vi7(4)
4r	.	.	.	[2f	.	I64
4C	.	[4c	.	.	.	.
=4	=4	=4	=4	=4	=4	=4
4BB-	2.E	2c]	.	4f]	.	V2(+4)
4r	.	.	.	[2g	.	V64
4GG	.	[4c	.	.	.	.
=5	=5	=5	=5	=5	=5	=5
4FF	2.F	2c]	.	4g]	.	I(+2)
4r	.	.	.	[2a	.	I6
4AA	.	[4c	.	.	.	.
=6	=6	=6	=6	=6	=6	=6
4BB-	2.E	2c]	.	4a]	.	V2(6)
4r	.	.	.	[2g	.	V
4C	.	4c	.	.	.	.
=7	=7	=7	=7	=7	=7	=7
4D'	4F'	4A'	.	4g']	.	vi(4)
4DD'	4F'	4A'	.	4f'	.	vi
4CC'	4E'	4e'	.	4g'	.	V
=8	=8	=8	=8	=8	=8	=8
!LO:TX:a:Bi:t=pp	!LO:TX:a:Bi:t=pp	!LO:TX:a:Bi:t=pp	!	!	!	!
4FF'	4F'	4A'	.	4f'	.	I\\
4d'	4a'	4ff'	.	4r	.	vi
4c'	4ee'	4gg'	.	[4ccc	.	V
=9	=9	=9	=9	=9	=9	=9
!	!	!	!	!LO:TX:a:Bi:t=pp	!	!
4f'	4a'	4ff'	.	2ccc]	.	I
4r	4F'	[2aa	.	.	.	.
4A	[4f	.	.	[4ccc	.	I6
=10	=10	=10	=10	=10	=10	=10
4B-	4f]	4aa]	.	2ccc]	.	V2
4r	4e	[2gg	.	.	.	.
4c	(4b-	.	.	[4ccc	.	V7
=11	=11	=11	=11	=11	=11	=11
4d	4a)	4gg]	.	2ccc]	.	vi43
4r	4A	[2ff	.	.	.	.
4c	4a	.	.	[4ccc	.	I64
=12	=12	=12	=12	=12	=12	=12
4B-	4d	4ff]	.	2ccc]	.	V2
4r	4b-	[2gg	.	.	.	.
4G	4e	.	.	[4ccc	.	V64
=13	=13	=13	=13	=13	=13	=13
4F	4a	4gg]	.	2ccc]	.	I
4r	4c	[2aa	.	.	.	.
4A	[4f	.	.	[4ccc	.	I6
=14	=14	=14	=14	=14	=14	=14
4B-	4f]	4aa]	.	2ccc]	.	V65
4r	4E	[2gg	.	.	.	.
4c	4e	.	.	[4ccc	.	V
=15	=15	=15	=15	=15	=15	=15
4d	4A	4gg]	.	4ccc']	.	vi7(4)
4D	4a	4ff'	.	4ddd'	.	vi
4C	4c	4gg'	.	4eee'	.	V
=16	=16	=16	=16	=16	=16	=16
4F	4F	4ff'	.	4fff'	.	I\\
2EE-X^	2E-X^	2e-X^	.	2e-X^	.	V2/IV
=17!|:	=17!|:	=17!|:	=17!|:	=17!|:	=17!|:	=17!|:
!LO:TX:a:i:t=dim.	!	!	!	!	!	!
4r	4r	2.r	.	2.r	.	V2/IV
2EE-X	2E-X	.	.	.	.	.
=18	=18	=18	=18	=18	=18	=18
2EE-X	2E-X	2.r	.	2.r	.	.
4EE-	4E-	.	.	.	.	.
=19	=19	=19	=19	=19	=19	=19
!	!LO:TX:a:i:t=dim.	!	!	!LO:TX:a:i:t=dim.	!	!
4r	4r	4r	.	4r	.	.
2EE-X	2E-X	2e-X	.	2e-X	.	.
=20	=20	=20	=20	=20	=20	=20
2EE-X	2E-X	2e-X	.	2e-X	.	.
4EE-	4E-	4e-	.	4e-	.	.
=21	=21	=21	=21	=21	=21	=21
!LO:TX:b:Bi:t=p	!	!	!	!	!	!
!LO:TX:a:Bi:t=p	!LO:TX:a:Bi:t=p	!LO:TX:a:Bi:t=p	!	!	!	!
4r	4r	4r	.	4r	.	.
2EE-X	2E-X	2e-X	.	2e-X	.	.
=22	=22	=22	=22	=22	=22	=22
4r	4r	4r	.	4r	.	.
2EE-X	2E-X	2e-X	.	2e-X	.	.
=23	=23	=23	=23	=23	=23	=23
!LO:TX:b:Bi:t=pp	!	!	!	!	!	!
!LO:TX:a:Bi:t=pp	!LO:TX:a:Bi:t=pp	!LO:TX:a:Bi:t=pp	!	!	!	!
4r	4r	4r	.	4r	.	.
2EEn	2En	2en	.	2en	.	V6
=24	=24	=24	=24	=24	=24	=24
4r	4r	4r	.	4r	.	.
!LO:TX:b:i:t=cresc.	!LO:TX:b:i:t=cresc.	!LO:TX:b:i:t=cresc.	!	!LO:TX:b:i:t=cresc.	!	!
[2CC	2E	2e	.	2e	.	V[V6
=25	=25	=25	=25	=25	=25	=25
4CC]	4F	4r	.	4r	.	I
!	!	!	!	!LO:TX:b:i:t=cresc.	!	!
(4C	((2C	4r	.	[2a	.	I6
!	!	!LO:TX:b:i:t=cresc.	!	!	!	!
[4CC 4A	.	[4f	.	.	.	.
=26	=26	=26	=26	=26	=26	=26
4CC] 4Bn)	4C))	(2f]	.	4a]	.	#vii%7/V
(4C	(2C	.	.	[2g	.	V
[4CC 4A	.	4e	.	.	.	.
=27	=27	=27	=27	=27	=27	=27
4CC] 4d)	4C)	2A	.	4g]	.	vi(4)
(4C	(2C	.	.	[2f	.	i64
[4CC 4A	.	4A-X	.	.	.	.
=28	=28	=28	=28	=28	=28	=28
2CC] 4Bn)	4C)	2d	.	4f]	.	#viio/V
.	(4C	.	.	[2g	.	viio2
[4CC	4D-X 4B-X	[4e)	.	.	.	.
=29	=29	=29	=29	=29	=29	=29
4CC]	4C) 4A	4e]	.	4g]	.	I(97)
(4C	(2C	(4A	.	[2a	.	I
[4CC 4A	.	[4f)	.	.	.	.
=30	=30	=30	=30	=30	=30	=30
4CC] 4Bn)	4C)	4f]	.	4a]	.	#vii%7/V
(4C	(2C	4f	.	[2g	.	V
[4CC 4c	.	4e	.	.	.	.
=31	=31	=31	=31	=31	=31	=31
4CC] 4Bn)	4C)	[4A-X	.	4g]	.	#viio7(6)/V
(4C	(2C	4A-] 4d	.	4f'	.	#viio7/V
[4CC 4B-X	.	4G 4e	.	4g'	.	viio6
=32	=32	=32	=32	=32	=32	=32
!LO:TX:b:Bi:t=f	!	!	!	!	!	!
!LO:TX:a:Bi:t=f	!	!	!	!	!	!
4CC] 4Bn)	4C)	4A	.	4f'	.	I6]\\
4FF'	4F'	4r	.	4r	.	I
[4GG	(4G	4r	.	4r	.	.
=33	=33	=33	=33	=33	=33	=33
!	!LO:TX:a:Bi:t=f	!	!	!LO:TX:a:Bi:t=f	!	!
4GG]	4G)	4f'	.	4ff'	.	.
[2AA	[2A	4r	.	4r	.	I6
.	.	4a'	.	4aa'	.	.
=34	=34	=34	=34	=34	=34	=34
4AA]	4A]	4b-'	.	4bb-'	.	ii(2)
[2GG	[2G	4r	.	4r	.	ii
.	.	4cc	.	4ccc	.	V64
=35	=35	=35	=35	=35	=35	=35
4GG]	4G]	4dd	.	4ddd	.	vi6(4)
[2FF	[2F	4r	.	4r	.	vi6
.	.	4cc	.	4ccc	.	I
=36	=36	=36	=36	=36	=36	=36
4FF]	4F]	4b-	.	4bb-	.	.
[2GG	[2G	4r	.	4r	.	ii
.	.	4g	.	4gg	.	.
=37	=37	=37	=37	=37	=37	=37
!	!LO:TX:a:i:t=dim.	!	!	!	!	!
4GG]	4G]	4f	.	4ff	.	.
[2AA	[2A	4r	.	4r	.	I6
.	.	4a	.	4aa	.	.
=38	=38	=38	=38	=38	=38	=38
!	!	!LO:TX:a:i:t=dim.	!	!LO:TX:a:i:t=dim.	!	!
4AA]	4A]	4b-	.	4bb-	.	ii(2)
[2GG	[2G	4r	.	4r	.	ii
.	.	4cc	.	4ccc	.	.
=39	=39	=39	=39	=39	=39	=39
!	!LO:TX:a:Bi:t=pp	!	!	!	!	!
4GG]	4G]	4dd	.	4ddd	.	vi6(4)
4FF'	4F'	4r	.	4r	.	vi6
4GG'	4G'	4e 4cc	.	4ccc	.	V64
=40	=40	=40	=40	=40	=40	=40
!	!	!LO:TX:a:Bi:t=pp	!	!LO:TX:a:Bi:t=pp	!	!
4FF'	4F'	4a' 4cc	.	4ccc'	.	I\\
4r	4A'	4cc'	.	4ccc'	.	.
4r	4F'	4a'	.	4eee-X'	.	V7/IV
=41	=41	=41	=41	=41	=41	=41
4r	4B-	4f'	.	4ddd'	.	IV
4FF'	4r	4r	.	4r	.	.
4GG'	4r	4r	.	4r	.	.
=42	=42	=42	=42	=42	=42	=42
4FF'	4r	4r	.	4r	.	I
4r	4B-'	4f' 4dd	.	4eee'	.	IV(4)
4r	4B-'	4f' 4dd	.	4fff'	.	IV
=43	=43	=43	=43	=43	=43	=43
4r	4f	4a	.	4ccc'	.	I
4FF'	4f	4ff	.	4r	.	.
4EE-X'	4g	4gg	.	4r	.	iv6/ii
=44	=44	=44	=44	=44	=44	=44
4DD'	4f#X	4ff#X	.	4r	.	V/ii
4EEn'	4g	4bb-	.	4ddd	.	vii%7
4FF#X	4a	4aa	.	4ccc	.	#viio/ii
=45	=45	=45	=45	=45	=45	=45
4GG	4d	4aa'	.	4ccc'	.	ii(94)
4GG	4e	4gg'	.	4bb-'	.	ii
4AA	4c	4ffn'	.	4aa'	.	I6
=46	=46	=46	=46	=46	=46	=46
4BB-	4d	4ff	.	4aa	.	IVM7
4BB-	4G	4dd	.	4bb-	.	ii6
4C	4c	4b- 4ee	.	4gg'	.	V7
=47	=47	=47	=47	=47	=47	=47
4FF	4c	4a'	.	4aa'	.	I\\
4r	4r	4f'	.	4ff'	.	I
4r	4r	4g'	.	4gg'	.	V
=48	=48	=48	=48	=48	=48	=48
4r	4r	4f	.	4ff	.	I
*clefC4	*	*	*	*	*	*
4c'	4A'	4r	.	4r	.	V43/IV
4e-X'	4c'	4r	.	4r	.	.
=49	=49	=49	=49	=49	=49	=49
4d'	4B-	4r	.	4r	.	IV
4r	4r	4f	.	4ff	.	.
4r	4r	4g	.	4gg	.	.
=50	=50	=50	=50	=50	=50	=50
4r	4r	4f	.	4ff	.	I
4en	4B-	4r	.	4r	.	V2
4f	4B-	4r	.	4r	.	.
=51	=51	=51	=51	=51	=51	=51
4c	4A	4r	.	4r	.	I6
4r	4r	4f	.	4ff	.	.
4r	4r	4g	.	4gg	.	.
=52	=52	=52	=52	=52	=52	=52
4r	4r	4f	.	4ff	.	.
4e-X	4c	4f#X	.	4ff#X	.	#viio43/ii
4d	4B-	4g	.	4gg	.	ii6
=53	=53	=53	=53	=53	=53	=53
4d'	4B-'	4g	.	4gg	.	.
4c'	4A'	4g	.	4gg	.	.
4B-'	4G'	4cc	.	4ccc	.	V43
=54	=54	=54	=54	=54	=54	=54
(4A	(4F	4cc	.	4ccc	.	I
4B-)	4G)	4cc	.	4ccc	.	V43
4G'	4E'	4cc	.	4ccc	.	V65
=55	=55	=55	=55	=55	=55	=55
4A'	4F'	4cc'	.	4ccc'	.	I
4G'	4e'	4c'	.	4bb-'	.	V43
4A'	4f'	4cc'	.	4aa'	.	I6
=56	=56	=56	=56	=56	=56	=56
!LO:TX:b:i:t=cresc.	!	!	!	!	!	!
!LO:TX:a:i:t=cresc.	!	!LO:TX:b:i:t=cresc.	!	!LO:TX:b:i:t=cresc.	!	!
(4B-	(4d	(4cc	.	(4aa	.	IVM7
*clefF4	*	*	*	*	*	*
4BB-)	4D)	4g) 4dd	.	4bb-)	.	IV
4C'	4E'	4e'	.	4gg'	.	V
=57	=57	=57	=57	=57	=57	=57
4C'	(4E	(4b-	.	(4gg	.	V7
4CC'	4F)	4a)	.	4aa)	.	V(64)
4CC'	4A'	4f' 4a	.	4ff'	.	.
=58	=58	=58	=58	=58	=58	=58
4CC	(4B-	(4g	.	(4ee	.	V7
4CC	4A)	4f)	.	4ff)	.	V(64)
4CC	4G'	4e'	.	4gg'	.	V
=59	=59	=59	=59	=59	=59	=59
!LO:TX:a:i:t=dim.	!LO:TX:a:i:t=dim.	!	!	!LO:TX:a:i:t=dim.	!	!
(4CC	(4G	4b-'	.	(4ee	.	V7
4DD)	4F)	4B-'	.	4ff)	.	IV6
4EE'	4E'	4b-'	.	4gg'	.	viio
=60	=60	=60	=60	=60	=60	=60
4FF'	4A'	4a'	.	4cc	.	I
4GG'	4B-'	4g'	.	4cc	.	V43
4AA'	4c'	4f'	.	4cc	.	I6
=61	=61	=61	=61	=61	=61	=61
(4CC	(4G	4B-	.	(4ee	.	V7
4DD)	4F)	4b-	.	4ff)	.	IV6
4EE'	4E'	4b-	.	4gg'	.	viio
=62	=62	=62	=62	=62	=62	=62
!	!LO:TX:a:Bi:t=p	!	!	!LO:TX:a:Bi:t=p	!	!
!LO:TX:a:i:t=sempre	!LO:TX:a:i:t=sempre	!LO:TX:a:Bi:t=p	!	!LO:TX:b:i:t=sempre	!	!
4FF'	4A'	4a'	.	4cc	.	I
4GG'	4B-'	4g'	.	4cc	.	V43
4AA'	4c'	4f'	.	4cc	.	I6
=63	=63	=63	=63	=63	=63	=63
!LO:TX:a:Bi:t=p	!	!	!	!LO:TX:a:Bi:t=p	!	!
!LO:TX:a:i:t=piu	!LO:TX:a:i:t=piu	!LO:TX:b:Bi:t=p	!	!LO:TX:b:i:t=piu	!	!
(4CC	(4G	4B-	.	(4ee	.	V7
4DD)	4F)	4b-	.	4ff)	.	IV6
4EE'	4E'	4b-	.	4gg'	.	viio
=64	=64	=64	=64	=64	=64	=64
4FF'	4A'	4a'	.	4cc	.	I
4GG'	4B-'	4g'	.	4cc	.	V43
4AA'	4c'	4f'	.	4cc	.	I6
=65	=65	=65	=65	=65	=65	=65
!	!	!	!	!LO:TX:a:Bi:t=pp	!	!
!LO:TX:a:Bi:t=pp	!LO:TX:a:Bi:t=pp	!	!	!LO:TX:b:i:t=dim.	!	!
(4CC	(4G	4B-	.	(4ee	.	V7
4DD)	4F)	4b-	.	4ff)	.	IV6
4EE'	4E'	4b-	.	4gg'	.	viio
=66	=66	=66	=66	=66	=66	=66
!LO:TX:a:Bi:t=f	!	!LO:TX:a:Bi:t=f	!	!LO:TX:a:Bi:t=f	!	!
4FF	4F	4a	.	4cc	.	I\\
2EE-X^	2E-X^	2e-X^	.	2e-X^	.	V2/IV
=67:|!	=67:|!	=67:|!	=67:|!	=67:|!	=67:|!	=67:|!
!LO:TX:a:Bi:t=f	!	!	!	!	!	!
!LO:TX:a:Bi:t=f	!	!LO:TX:a:Bi:t=f	!	!LO:TX:a:Bi:t=f	!	!
4FF	4F	4a	.	4cc	.	I\\
4r	4r	4r	.	(8fL	.	.
.	.	.	.	8e	.	.
4r	4r	4r	.	8f	.	.
.	.	.	.	8gJ)	.	.
=68	=68	=68	=68	=68	=68	=68
!LO:TX:a:Bi:t=fp	!	!	!	!	!	!
!LO:TX:a:Bi:t=fp	!LO:TX:a:Bi:t=fp	!	!	!LO:TX:a:Bi:t=fp	!	!
4FF	4F	4c	.	4a	.	I
(8FFL	(8FL	4f 4a	.	4cc	.	.
8EE	8E	.	.	.	.	.
8FF	8F	4f 4a	.	4cc	.	.
8GGJ)	8GJ)	.	.	.	.	.
=69	=69	=69	=69	=69	=69	=69
4AA'	4A'	4f 4a	.	4cc	.	I6
4BB-'	4B-'	4f 4a	.	4cc	.	.
4C'	4c'	4f 4a	.	4cc	.	I64
=70	=70	=70	=70	=70	=70	=70
4D'	4d'	4f 4a	.	4cc	.	ii7
4E'	4e'	4f 4a	.	4cc	.	.
4F'	4f'	4f 4a	.	4cc	.	I
=71	=71	=71	=71	=71	=71	=71
4G'	4g'	4f 4a	.	4cc	.	.
4A'	4a'	4f 4a	.	4cc	.	I6
4B-'	4b-'	4f 4a	.	4cc	.	.
=72	=72	=72	=72	=72	=72	=72
!	!	!	!	!LO:TX:b:Bi:t=f	!	!
4c	4cc	4f 4a	.	4cc'	.	I64
4c	4a	4f	.	4dd'	.	.
4c	4a	4f	.	4ee'	.	.
=73	=73	=73	=73	=73	=73	=73
4c	4a	4f	.	4ff'	.	.
4c	4a	4f	.	4gg'	.	.
4c	4a	4f	.	4aa'	.	.
=74	=74	=74	=74	=74	=74	=74
4c	4g	4e	.	4bb-'	.	V7
4c	4g	4e	.	4G'	.	.
4c	4g	4e	.	4aa'	.	.
=75	=75	=75	=75	=75	=75	=75
4c	4g	4e	.	4bb-'	.	.
4c	4g	4e	.	4b-'	.	.
4c	4g	4e	.	4ccc'	.	.
=76	=76	=76	=76	=76	=76	=76
!LO:TX:a:Bi:t=fp	!LO:TX:a:Bi:t=fp	!LO:TX:a:Bi:t=fp	!	!LO:TX:a:Bi:t=fp	!	!
4F	4cc	4f 4a	.	4aa'	.	I
4c	4cc	4a 4ff	.	(8fL	.	.
.	.	.	.	8e	.	.
4c	4cc	4a 4ff	.	8f	.	.
.	.	.	.	8gJ)	.	.
=77	=77	=77	=77	=77	=77	=77
4c	4cc	4a 4ff	.	4a'	.	.
4c	4cc	4a 4ff	.	4b-'	.	.
4c	4cc	4a 4ff	.	4cc'	.	.
=78	=78	=78	=78	=78	=78	=78
4c	4cc	4a 4ff	.	4dd'	.	I
4c	4cc	4a 4ff	.	4ee'	.	.
4c	4cc	4a 4ff	.	4ff'	.	.
=79	=79	=79	=79	=79	=79	=79
4c	4cc	4a 4ff	.	4gg'	.	.
4c	4cc	4a 4ff	.	4aa'	.	.
4c	4cc	4a 4ff	.	4bb-'	.	.
=80	=80	=80	=80	=80	=80	=80
4c	4cc	4g 4ee	.	4ccc	.	V
4c	4cc	4g 4ee	.	4ddd	.	.
4c	4cc	4g 4ee	.	4eee	.	.
=81	=81	=81	=81	=81	=81	=81
4c	4cc	4g 4ee	.	4fff	.	.
4c	4cc	4g 4ee	.	4ggg	.	.
4c	4cc	4g 4ee	.	4aaa	.	.
=82	=82	=82	=82	=82	=82	=82
4c	4cc	4g 4ee	.	4bbb-	.	V7
4c	4cc	4g 4ee	.	4cc	.	.
4c	4cc	4g 4ee	.	4aa	.	.
=83	=83	=83	=83	=83	=83	=83
4c	4cc	4g 4ee	.	4bb-	.	.
4c	4cc	4g 4ee	.	4cc	.	.
4c	4cc	4g 4ee	.	4ccc	.	.
=84	=84	=84	=84	=84	=84	=84
4c	4cc	4a 4ff	.	4aa	.	I
(8DDL	(8DL	4r	.	4r	.	.
8CC	8C	.	.	.	.	.
8DD	8D	4r	.	4r	.	.
8EEJ)	8EJ)	.	.	.	.	.
=85	=85	=85	=85	=85	=85	=85
!LO:TX:a:i:t=cresc.	!LO:TX:a:i:t=cresc.	!	!	!LO:TX:a:i:t=cresc.	!	!
4FF	4F	4r	.	4r	.	.
4r	4r	(8eL	.	(8eeL	.	.
.	.	8d	.	8dd	.	.
4r	4r	8e	.	8ee	.	.
.	.	8fJ)	.	8ffJ)	.	.
=86	=86	=86	=86	=86	=86	=86
4r	4r	4g	.	4gg	.	ii-V
(8FFL	(8FL	4r	.	4r	.	.
8EE	8E	.	.	.	.	.
8FF	8F	4r	.	4r	.	.
8GGJ)	8GJ)	.	.	.	.	.
=87	=87	=87	=87	=87	=87	=87
4AA	4A	4r	.	4r	.	iii-I6
4r	4r	(8gL	.	(8ggL	.	.
.	.	8f	.	8ff	.	.
4r	4r	8g	.	8gg	.	.
.	.	8aJ)	.	8aaJ)	.	.
=88	=88	=88	=88	=88	=88	=88
4r	4r	4b-	.	4bb-	.	IV-V7
(8AAL	(8AL	4r	.	4r	.	.
8GG	8G	.	.	.	.	.
8AA	8A	4r	.	4r	.	.
8BB-J)	8B-J)	.	.	.	.	.
=89	=89	=89	=89	=89	=89	=89
4C	4c	4r	.	4r	.	V
4r	4r	(8gL	>	(8ggL	>	.
.	.	8f	.	8ff	.	.
4r	4r	8g	.	8gg	.	.
.	.	8aJ)	]]	8aaJ)	]]	.
=90	=90	=90	=90	=90	=90	=90
!	!LO:TX:a:Bi:t=p	!	!	!	!	!
!LO:TX:a:Bi:t=p	!LO:TX:a:Bi:t=p	!	!	!LO:TX:a:Bi:t=p	!	!
4d	4f	4b-	.	4bb-	.	IV6
4r	4r	4r	.	4r	.	.
4d	4cc	4ff	.	4aa	.	vi
=91	=91	=91	=91	=91	=91	=91
2.e	(2cc	2.ee	.	(2aa	.	V(64)/iii
.	4bn)	.	.	4gg#X)	.	V/iii
=92	=92	=92	=92	=92	=92	=92
!LO:TX:a:i:t=cresc.	!LO:TX:a:i:t=cresc.	!LO:TX:b:i:t=cresc.	!	!	!	!
[2.FF	4a'	4f'	.	4aa	.	I
.	(8aL	(8aaL	.	4r	.	.
.	8g#X	8gg#X	.	.	.	.
.	8a	8aa	.	4r	.	.
.	8bnJ)	8bbnJ)	.	.	.	.
=93	=93	=93	=93	=93	=93	=93
!	!	!	!	!LO:TX:a:i:t=cresc.	!	!
2.FF]	4cc	4ccc	.	4r	.	.
.	4r	(8gnL	.	(8ggnL	.	.
.	.	8f	.	8ff	.	.
.	4r	8g	.	8gg	.	.
.	.	8aJ)	.	8aaJ)	.	.
=94	=94	=94	=94	=94	=94	=94
!	!LO:TX:a:Bi:t=p	!	!	!	!	!
!LO:TX:a:Bi:t=p	!LO:TX:a:Bi:t=p	!	!	!LO:TX:a:Bi:t=p	!	!
4DD	4f	4b-X	.	4bb-	.	IV6
4r	4r	4r	.	4r	.	.
*clefC4	*	*	*	*	*	*
4d	4f	4ff	.	4aa	.	vi
=95	=95	=95	=95	=95	=95	=95
2.e	(2cc	2.ee	.	(2aa	.	V(64)/iii
.	4bn)	.	.	4gg#X)	.	V/iii
=96	=96	=96	=96	=96	=96	=96
4c	4cc	4ee	.	4aa	.	II.IV(6)
4r	4r	4r	.	4r	.	.
4c	4cc	4ee	.	4gg	.	IV
=97	=97	=97	=97	=97	=97	=97
2.d	(2bn	2.dd	.	(2gg	.	V(64)
.	4a)	.	.	4ff#X)	.	V
=98||	=98||	=98||	=98||	=98||	=98||	=98||
*k[f#]	*k[f#]	*k[f#]	*	*k[f#]	*	*
*G:	*G:	*G:	*	*G:	*	*
!	!	!LO:TX:a:Bi:t=fp	!	!	!	!
!LO:TX:a:Bi:t=fp	!LO:TX:a:Bi:t=fp	!LO:TX:a:Bi:t=fp	!	!	!	!
4G	4g	4dd	.	4b 4gg	.	I\\
4d	4g 4b	4dd 4bb	.	(8gL	.	I64
.	.	.	.	8f#	.	.
4d	4g 4b	4dd 4bb	.	8g	.	.
.	.	.	.	8aJ)	.	.
=99	=99	=99	=99	=99	=99	=99
4d	4g 4b	4dd 4bb	.	4b'	.	.
4d	4g 4b	4dd 4bb	.	4cc'	.	.
4d	4g 4b	4dd 4bb	.	4dd'	.	.
=100	=100	=100	=100	=100	=100	=100
4d	4g 4b	4dd 4bb	.	4ee'	.	.
4d	4g 4b	4dd 4bb	.	4ff#'	.	.
4d	4g 4b	4dd 4bb	.	4gg'	.	.
=101	=101	=101	=101	=101	=101	=101
4d	4f# 4a	4dd 4ccc	.	4aa'	.	V7
4d	4f# 4a	4dd 4ccc	.	4bb'	.	.
4d	4f# 4a	4dd 4ccc	.	4ccc'	.	.
=102	=102	=102	=102	=102	=102	=102
4d	4f# 4a	4dd 4ccc	.	4ddd	.	.
4d	4f# 4a	4dd 4ccc	.	4eee	.	.
4d	4f# 4a	4dd 4ccc	.	4fff#	.	.
=103	=103	=103	=103	=103	=103	=103
4d	4f# 4a	4dd 4ccc	.	4ggg	.	.
4d	4f# 4a	4dd 4ccc	.	4aaa	.	.
4d	4f# 4a	4dd 4ccc	.	4bbb	.	.
=104	=104	=104	=104	=104	=104	=104
4d	4f# 4a	4dd 4ccc	.	4cccc	.	.
4d	4f# 4a	4dd 4ccc	.	4d	.	.
4d	4f# 4a	4dd 4ccc	.	4b	.	.
=105	=105	=105	=105	=105	=105	=105
4d	4f# 4a	4dd 4ccc	.	4cc	.	.
4d	4f# 4a	4dd 4ccc	.	4d	.	.
4d	4f# 4a	4dd 4ccc	.	4dd	.	.
=106	=106	=106	=106	=106	=106	=106
!	!	!LO:TX:a:Bi:t=fp	!	!	!	!
!LO:TX:a:Bi:t=fp	!LO:TX:a:Bi:t=fp	!LO:TX:a:Bi:t=fp	!	!	!	!
4G	4g 4b	4dd 4bb	.	4b	.	I
4d	4g 4b	4dd 4bb	.	(8gL	.	I64
.	.	.	.	8f#	.	.
4d	4g 4b	4dd 4bb	.	8g	.	.
.	.	.	.	8aJ)	.	.
=107	=107	=107	=107	=107	=107	=107
4d	4g 4b	4dd 4bb	.	4b'	.	.
4d	4g 4b	4dd 4bb	.	4cc'	.	.
4d	4g 4b	4dd 4bb	.	4dd'	.	.
=108	=108	=108	=108	=108	=108	=108
4d	4g 4b	4dd 4bb	.	4ee	.	.
4d	4g 4b	4dd 4bb	.	4ff#	.	.
4d	4g 4b	4dd 4bb	.	4gg	.	.
=109	=109	=109	=109	=109	=109	=109
4d	4g 4b	4dd 4bb	.	4aa	.	.
4g	4g 4b	4dd 4bb	.	4bb	.	I
4g	4g 4b	4dd 4bb	.	4ccc	.	.
=110	=110	=110	=110	=110	=110	=110
4g	4g 4b	4dd 4bb	.	4ddd	.	.
4g	4g 4b	4dd 4bb	.	4eee	.	.
4g	4g 4b	4dd 4bb	.	4fff#	.	.
=111	=111	=111	=111	=111	=111	=111
4fn	4g 4b	4dd 4bb	.	4ggg	.	V2/IV
4f	4g 4b	4dd 4bb	.	4aaa	.	.
4f	4g 4b	4dd 4bb	.	4bbb	.	.
=112	=112	=112	=112	=112	=112	=112
!	!LO:TX:a:i:t=dim.	!LO:TX:a:i:t=dim.	!	!LO:TX:a:i:t=dim.	!	!
4e	4g#X 4b	4dd 4bb	.	4bbb	.	V7/ii
4e	4g# 4b	4ee 4bb	.	4e	.	.
4e	4g# 4b	4ee 4bb	.	4dd#X	.	.
=113	=113	=113	=113	=113	=113	=113
4e	4g#X 4b	4ee 4bb	.	4ee	.	iii.V
4e	4g# 4b	4ee 4bb	.	4e	.	.
4e	4g# 4b	4ee 4bb	.	4ddn	.	V7
=114	=114	=114	=114	=114	=114	=114
4e	4a 4cc	4ee 4ccc	.	4cc	.	V(64)
4e	4a 4cc	4ee 4ccc	.	4e	.	.
4e	4a 4cc	4ee 4ccc	.	4b	.	.
=115	=115	=115	=115	=115	=115	=115
4e	4a 4cc	4ee 4ccc	.	4cc	.	.
4e	4a	4ee 4ccc	.	4e	.	.
4e	4g#X	4ee 4bb	.	4b	.	V
=116	=116	=116	=116	=116	=116	=116
!LO:TX:a:Bi:t=pp	!LO:TX:a:Bi:t=pp	!LO:TX:a:Bi:t=pp	!	!LO:TX:b:Bi:t=pp	!	!
4e	4g#X	4ee 4bb	.	4b	.	.
4e	4g# 4b	4ee 4bb	.	4e	.	.
4e	4g# 4b	4ee 4bb	.	4cc	.	.
=117	=117	=117	=117	=117	=117	=117
4e	4g#X 4b	4ee 4bb	.	4cc	.	.
4e	4g# 4b	4ee 4bb	.	4e	.	.
4e	4g# 4b	4ee 4bb	.	4b	.	.
=118	=118	=118	=118	=118	=118	=118
4e	4g#X 4b	4ee 4bb	.	4b	.	.
4e	4g# 4b	4ee 4bb	.	4e	.	.
4e	4g# 4b	4ee 4bb	.	4cc	.	.
=119	=119	=119	=119	=119	=119	=119
4e	4g#X 4b	4ee 4bb	.	4cc	.	.
4e	4g# 4b	4ee 4bb	.	4e	.	.
4e	4g# 4b	4ee 4bb	.	4b	.	.
=120	=120	=120	=120	=120	=120	=120
4e	4g#X 4b	4ee 4bb	.	4b	.	.
*clefF4	*	*	*	*	*	*
(8EL	(8G#XL	4ee 4gg#X	.	4bb	.	.
8D#X	8F#X	.	.	.	.	.
8E	8G#	4ee 4gg#	.	4bb	.	.
8F#J)	8AJ)	.	.	.	.	.
=121	=121	=121	=121	=121	=121	=121
!LO:TX:b:i:t=cresc.	!LO:TX:a:i:t=cresc.	!LO:TX:a:i:t=cresc.	!	!LO:TX:a:i:t=cresc.	!	!
4G#X	4B	4ee 4gg#X	.	4bb	.	V64
4r	(8c#XL	4ee 4gg#	.	4bb	.	.
.	8B	.	.	.	.	.
4r	8c#	4ee 4gg#	.	4bb	.	.
.	8dJ)	.	.	.	.	.
=122	=122	=122	=122	=122	=122	=122
4r	4e	4ee 4gg#X	.	4bb	.	V
4e	(8g#XL	4ee 4gg#	.	4bb	.	.
.	8f#	.	.	.	.	.
4e	8g#	4ee 4gg#	.	4bb	.	.
.	8aJ)	.	.	.	.	.
=123	=123	=123	=123	=123	=123	=123
4e	4b	4ee 4gg#X	.	4bb	.	.
4e	(8aL	(8f#L	.	4eee	.	.
.	8g#X	8e	.	.	.	.
4e	8a	8f#	.	4ddd	.	.
.	8bJ)	8g#XJ)	.	.	.	.
=124||	=124||	=124||	=124||	=124||	=124||	=124||
*k[f#c#g#]	*k[f#c#g#]	*k[f#c#g#]	*	*k[f#c#g#]	*	*
*A:	*A:	*A:	*	*A:	*	*
!LO:TX:b:Bi:t=fp	!LO:TX:a:Bi:t=fp	!LO:TX:a:Bi:t=fp	!	!LO:TX:a:Bi:t=fp	!	!
4A	4e 4cc#	4a	.	4ccc#'	.	III.I
4e	4a 4cc#	4ccc#	.	(8AL	.	I64
.	.	.	.	8G#	.	.
4e	4a 4cc#	4ccc#	.	8A	.	.
.	.	.	.	8BJ)	.	.
=125	=125	=125	=125	=125	=125	=125
4e	4a 4cc#	4ee 4ccc#	.	4c#'	.	.
4e	4a 4cc#	4ee 4ccc#	.	4d'	.	.
4e	4a 4cc#	4ee 4ccc#	.	4e'	.	.
=126	=126	=126	=126	=126	=126	=126
4e	4a 4cc#	4ee 4ccc#	.	4f#'	.	.
4e	4a 4cc#	4ee 4ccc#	.	4g#'	.	.
4e	4a 4cc#	4ee 4ccc#	.	4a'	.	.
=127	=127	=127	=127	=127	=127	=127
4e	4g# 4b	4ee 4ddd	.	4b	.	V7
4e	4g# 4b	4ee 4ddd	.	4cc#	.	.
4e	4g# 4b	4ee 4ddd	.	4dd	.	.
=128	=128	=128	=128	=128	=128	=128
4e	4g# 4b	4ee 4ddd	.	4ee	.	.
4e	4g# 4b	4ee 4ddd	.	4ff#	.	.
4e	4g# 4b	4ee 4ddd	.	4gg#	.	.
=129	=129	=129	=129	=129	=129	=129
4e	4g# 4b	4ee 4ddd	.	4aa	.	.
4e	4g# 4b	4ee 4ddd	.	4bb	.	.
4e	4g# 4b	4ee 4ddd	.	4ccc#	.	.
=130	=130	=130	=130	=130	=130	=130
4e	4g# 4b	4ee 4bb	.	4ddd	.	.
4e	(8g#L	(8bL	.	4ee	.	.
.	8f#	8a	.	.	.	.
4e	8g#	8b	.	4ccc#	.	V(64)
.	8aJ)	8cc#J)	.	.	.	.
=131	=131	=131	=131	=131	=131	=131
4e	4b'	4dd'	.	4ddd	.	V7
4e	(8g#L	(8bL	.	4ee	.	.
.	8f#	8a	.	.	.	.
4e	8g#	8b	.	4eee	.	.
.	8aJ)	8cc#J)	.	.	.	.
=132	=132	=132	=132	=132	=132	=132
!	!LO:TX:a:Bi:t=f	!LO:TX:a:Bi:t=fp	!	!LO:TX:a:Bi:t=fp	!	!
4A	4a'	4cc#'	.	4ccc#	.	I
(8AAL	4r	4cc# 4aa	.	4ee 4eee	.	.
8GG#J	.	.	.	.	.	.
8AAL	4r	4cc# 4aa	.	4ee 4eee	.	.
8BBJ)	.	.	.	.	.	.
=133	=133	=133	=133	=133	=133	=133
!LO:TX:a:i:t=sempre	!	!LO:TX:a:i:t=sempre	!	!LO:TX:a:i:t=sempre	!	!
4C#'	4r	4cc# 4aa	.	4ee 4eee	.	I6
4r	(8DL	4cc# 4aa	.	4ee 4eee	.	.
.	8C#	.	.	.	.	.
4r	8D	4cc# 4aa	.	4ee 4eee	.	.
.	8EJ)	.	.	.	.	.
=134	=134	=134	=134	=134	=134	=134
!LO:TX:a:Bi:t=p	!	!LO:TX:a:Bi:t=p	!	!LO:TX:a:Bi:t=p	!	!
2.r	4F#'	4cc# 4aa	.	4ee 4eee	.	vi7
.	(8G#L	(8g#L	.	4ee 4eee	.	.
.	8F#	8f#	.	.	.	.
.	8G#	8g#	.	4ee 4eee	.	.
.	8AJ)	8aJ)	.	.	.	.
*clefC4	*	*	*	*	*	*
=135	=135	=135	=135	=135	=135	=135
4e	4G#' 4B	4b'	.	4ee 4eee	.	V
4e	4A'	4cc#'	.	4ee 4eee	.	.
4e	4B'	4dd'	.	4ee 4eee	.	V7
=136	=136	=136	=136	=136	=136	=136
4e	4g#'	4b'	.	4ee 4eee	.	.
4e	4cc#'	4a'	.	4ff#	.	.
4e	4b'	4dd'	.	4gg#	.	.
=137	=137	=137	=137	=137	=137	=137
4e	4f#	4dd	.	4aa	.	.
4e	4g#	4dd	.	4bb	.	.
4e	4a	4dd	.	4ccc#	.	.
=138	=138	=138	=138	=138	=138	=138
4e	4g# 4b	4dd	.	4ddd	.	.
4e	4g# 4b	4dd 4bb	.	4ee	.	.
4e	4g# 4b	4dd 4bb	.	4ccc#	.	.
=139	=139	=139	=139	=139	=139	=139
4e	4g# 4b	4dd 4bb	.	4ddd	.	.
4e	4g# 4b	4dd 4bb	.	4ee	.	.
4e	4g# 4b	4dd 4bb	.	4eee	.	.
=140	=140	=140	=140	=140	=140	=140
!LO:TX:b:i:t=cresc.	!LO:TX:a:i:t=cresc.	!LO:TX:a:i:t=cresc.	!	!LO:TX:a:i:t=cresc.	!	!
4e	4g# 4b	4dd 4bb	.	4ddd'	.	.
*clefF4	*	*	*	*	*	*
(8GG#L	4g# 4ee	4dd 4bb	.	(8dddL	.	V65
8FF#	.	.	.	8eee	.	.
8GG#	4g# 4ee	4dd 4bb	.	8ddd	.	.
8AAJ)	.	.	.	8ccc#J)	.	.
=141	=141	=141	=141	=141	=141	=141
4BB'	4g# 4ee	4dd'	.	4bb'	.	V43
*clefC4	*	*	*	*	*	*
4e	(8G#L	(8BL	.	(8bL	.	V
.	8F#	8A	.	8cc#	.	.
4e	8G#	8B	.	8b	.	.
.	8AJ)	8c#J)	.	8aJ)	.	.
=142	=142	=142	=142	=142	=142	=142
4e	4B'	4d'	.	4g#'	.	V7
4e	(8dL	(8g#L	.	(8bL	.	.
.	8e	8f#	.	8a	.	.
4e	8d	8g#	.	8b	.	.
.	8c#J)	8aJ)	.	8cc#J)	.	.
=143	=143	=143	=143	=143	=143	=143
4e	4B'	4g#'	.	4dd'	.	.
*clefF4	*	*	*	*	*	*
(8FF#L	(8F#L	(8f#L	.	(8dddL	.	IV6
8EE	8E	8e	.	8ccc#	.	.
8FF#	8F#	8f#	.	8ddd	.	.
8GG#J)	8G#J)	8g#J)	.	8bbJ)	.	viio
=144	=144	=144	=144	=144	=144	=144
!LO:TX:a:Bi:t=ff	!LO:TX:a:Bi:t=ff	!LO:TX:a:Bi:t=ff	!	!LO:TX:a:Bi:t=ff	!	!
4AA'	4A'	4a'	.	4aa'	.	I[I
(8FF#L	(8F#L	(8f#L	.	4a'	.	.
8EE	8E	8e	.	.	.	.
8FF#	8F#	8f#	.	4ccc#'	.	.
8GG#J)	8G#J)	8g#J)	.	.	.	.
=145	=145	=145	=145	=145	=145	=145
!	!	!	!	!LO:TX:a:Bi:t=sf	!	!
4AA'	4A'	4a'	.	4a	.	.
(8FF#L	(8F#L	(8f#L	.	4eee	.	.
8EE	8E	8e	.	.	.	.
8FF#	8F#	8f#	.	4a	.	.
8GG#J)	8G#J)	8g#J)	.	.	.	.
=146	=146	=146	=146	=146	=146	=146
!	!	!	!	!LO:TX:a:Bi:t=sf	!	!
4AA	4A	4a	.	4eee	.	.
(8FF#L	(8F#L	(8f#L	.	4a	.	.
8EE	8E	8e	.	.	.	.
8FF#	8F#	8f#	.	4aaa	.	.
8GG#J)	8G#J)	8g#J)	.	.	.	.
=147	=147	=147	=147	=147	=147	=147
!	!	!	!	!LO:TX:a:Bi:t=sf	!	!
4AA	4A	4a	.	[2.eee	.	.
(8FF#L	(8F#L	(8f#L	.	.	.	.
8EE	8E	8e	.	.	.	.
8FF#	8F#	8f#	.	.	.	.
8GG#J)	8G#J)	8g#J)	.	.	.	.
=148	=148	=148	=148	=148	=148	=148
4AA	4A	4a	.	4eee]	.	.
(8FF#L	(8F#L	(8f#L	.	4a'	.	.
8EE	8E	8e	.	.	.	.
8FF#	8F#	8f#	.	4ddd'	.	.
8GG#J)	8G#J)	8g#J)	.	.	.	.
=149	=149	=149	=149	=149	=149	=149
!	!	!	!	!LO:TX:a:Bi:t=sf	!	!
4AA	4A	4a	.	4ccc#'	.	.
(8FF#L	(8F#L	(8f#L	.	4a'	.	.
8EE	8E	8e	.	.	.	.
8FF#	8F#	8f#	.	4ddd'	.	.
8GG#J)	8G#J)	8g#J)	.	.	.	.
=150	=150	=150	=150	=150	=150	=150
4AA	4A	4a	.	4ccc#	.	.
(8FF#L	(8F#L	(8f#L	.	4a	.	.
8EE	8E	8e	.	.	.	.
8FF#	8F#	8f#	.	4ddd	.	.
8GG#J)	8G#J)	8g#J)	.	.	.	.
=151	=151	=151	=151	=151	=151	=151
4AA	4A	4a	.	4ccc#	.	.
(8FF#L	(8F#L	(8f#L	.	4a	.	.
8EE	8E	8e	.	.	.	.
8FF#	8F#	8f#	.	4bb	.	.
8GG#J)	8G#J)	8g#J)	.	.	.	.
=152	=152	=152	=152	=152	=152	=152
4AA	4A	4a	.	4aa	.	.
(8FF#L	(8F#L	(8f#L	.	4a	.	.
8EE	8E	8e	.	.	.	.
8FF#	8F#	8f#	.	4ccc#	.	.
8GG#J)	8G#J)	8g#J)	.	.	.	.
=153	=153	=153	=153	=153	=153	=153
4AA	4A	4a	.	4a	.	.
(8FF#L	(8F#L	(8f#L	.	4eee	.	.
8EE	8E	8e	.	.	.	.
8FF#	8F#	8f#	.	4a	.	.
8GG#J)	8G#J)	8g#J)	.	.	.	.
=154	=154	=154	=154	=154	=154	=154
4AA	4A	4a	.	4eee	.	.
(8FF#L	(8F#L	(8f#L	.	4a	.	.
8EE	8E	8e	.	.	.	.
8FF#	8F#	8f#	.	4aaa	.	.
8GG#J)	8G#J)	8g#J)	.	.	.	.
=155	=155	=155	=155	=155	=155	=155
!	!	!	!	!LO:TX:a:Bi:t=sf	!	!
4AA	4A	4a	.	[2.eee	.	.
(8FF#L	(8F#L	(8f#L	.	.	.	.
8EE	8E	8e	.	.	.	.
8FF#	8F#	8f#	.	.	.	.
8GG#J)	8G#J)	8g#J)	.	.	.	.
=156	=156	=156	=156	=156	=156	=156
4AA	4A	4a	.	4eee]	.	.
(8FF#L	(8F#L	(8f#L	.	4a'	.	.
8EE	8E	8e	.	.	.	.
8FF#	8F#	8f#	.	4ddd'	.	.
8GG#J)	8G#J)	8g#J)	.	.	.	.
=157	=157	=157	=157	=157	=157	=157
4AA	4A	4a	.	4ccc#'	.	.
(8FF#L	(8F#L	(8f#L	.	4a'	.	.
8EE	8E	8e	.	.	.	.
8FF#	8F#	8f#	.	4ddd'	.	.
8GG#J)	8G#J)	8g#J)	.	.	.	.
=158	=158	=158	=158	=158	=158	=158
4AA	4A	4a	.	4ccc#	.	.
(8FF#L	(8F#L	(8f#L	.	4a	.	.
8EE	8E	8e	.	.	.	.
8FF#	8F#	8f#	.	4ddd	.	.
8GG#J)	8G#J)	8g#J)	.	.	.	.
=159	=159	=159	=159	=159	=159	=159
4AA	4A	4a	.	4ccc#	.	.
(8FF#L	(8F#L	(8f#L	.	4a	.	.
8EE	8E	8e	.	.	.	.
8FF#	8F#	8f#	.	4ddd	.	.
8GG#J)	8G#J)	8g#J)	.	.	.	.
=160	=160	=160	=160	=160	=160	=160
4AA	4A	4a	.	4ddd	.	V7
(8FF#L	(8F#L	(8f#L	.	(4b	.	.
8EE	8E	8e	.	.	.	.
8FF#	8F#	8f#	.	4ccc#)	.	.
8GG#J)	8G#J)	8g#J)	.	.	.	.
=161	=161	=161	=161	=161	=161	=161
.	.	.	.	(16qqccc#/	.	.
4AA	4A	4a	.	4ddd')	.	.
(8FF#L	(8F#L	(8f#L	.	4b'	.	.
8EE	8E	8e	.	.	.	.
8FF#	8F#	8f#	.	4eee'	.	.
8GG#J)	8G#J)	8g#J)	.	.	.	.
=162	=162	=162	=162	=162	=162	=162
4AA	4A	4a	.	4ccc#'	.	I
(8FF#L	(8F#L	(8f#L	.	4a'	.	.
8EE	8E	8e	.	.	.	.
8FF#	8F#	8f#	.	4ddd	.	.
8GG#J)	8G#J)	8g#J)	.	.	.	.
=163	=163	=163	=163	=163	=163	=163
4AA	4A	4a	.	4ccc#	.	.
(8FF#L	(8F#L	(8f#L	.	4eee	.	.
8EE	8E	8e	.	.	.	.
8FF#	8F#	8f#	.	4aaa	.	.
8GG#J)	8G#J)	8g#J)	.	.	.	.
=164	=164	=164	=164	=164	=164	=164
4AA	4A	4a	.	4ddd	.	V7
(8FF#L	(8F#L	(8f#L	.	(4b	.	.
8EE	8E	8e	.	.	.	.
8FF#	8F#	8f#	.	4ccc#)	.	.
8GG#J)	8G#J)	8g#J)	.	.	.	.
=165	=165	=165	=165	=165	=165	=165
.	.	.	.	(16qqeee/	.	.
4AA	4A	4a	.	4ddd')	.	.
(8FF#L	(8F#L	(8f#L	.	4b'	.	.
8EE	8E	8e	.	.	.	.
8FF#	8F#	8f#	.	4eee'	.	.
8GG#J)	8G#J)	8g#J)	.	.	.	.
=166	=166	=166	=166	=166	=166	=166
4AA	4A	4a	.	4ccc#	.	I
(8FF#L	(8F#L	(8f#L	.	4a	.	.
8EE	8E	8e	.	.	.	.
8FF#	8F#	8f#	.	4eee	.	.
8GG#J)	8G#J)	8g#J)	.	.	.	.
=167	=167	=167	=167	=167	=167	=167
.	.	.	.	(16qqeee/	.	.
4AA	4A	4a	.	(4aaa)	.	.
(8FF#L	(8F#L	(8f#L	.	4.a	.	.
8EE	8E	8e	.	.	.	.
8FF#	8F#	8f#	.	.	.	.
8GG#J)	8G#J)	8g#J)	.	8eee)	.	.
=168	=168	=168	=168	=168	=168	=168
4AA	4A	4a	.	4ddd	.	V7
(8FF#L	(8F#L	(8f#L	.	(4b	.	.
8EE	8E	8e	.	.	.	.
8FF#	8F#	8f#	.	4ccc#)	.	.
8GG#J)	8G#J)	8g#J)	.	.	.	.
=169	=169	=169	=169	=169	=169	=169
.	.	.	.	(16qqccc#/	.	.
4AA	4A	4a	.	4ddd')	.	.
(8FF#L	(8F#L	(8f#L	.	4b'	.	.
8EE	8E	8e	.	.	.	.
8FF#	8F#	8f#	.	4eee'	.	.
8GG#J)	8G#J)	8g#J)	.	.	.	.
=170	=170	=170	=170	=170	=170	=170
4AA	4A	4a	.	4ccc#	.	I
(8FF#L	(8F#L	(8f#L	.	4a	.	.
8EE	8E	8e	.	.	.	.
8FF#	8F#	8f#	.	4ddd	.	.
8GG#J)	8G#J)	8g#J)	.	.	.	.
=171	=171	=171	=171	=171	=171	=171
4AA	4A	4a	.	4ccc#	.	.
(8FF#L	(8F#L	(8f#L	.	4eee	.	.
8EE	8E	8e	.	.	.	.
8FF#	8F#	8f#	.	4aaa	.	.
8GG#J)	8G#J)	8g#J)	.	.	.	.
=172	=172	=172	=172	=172	=172	=172
4AA	4A	4a	.	4ddd	.	V7
(8FF#L	(8F#L	(8f#L	.	(4b	.	.
8EE	8E	8e	.	.	.	.
8FF#	8F#	8f#	.	4ccc#)	.	.
8GG#J)	8G#J)	8g#J)	.	.	.	.
=173	=173	=173	=173	=173	=173	=173
.	.	.	.	(16qqccc#/	.	.
4AA	4A	4a	.	4ddd')	.	.
(8FF#L	(8F#L	(8f#L	.	4b'	.	.
8EE	8E	8e	.	.	.	.
8FF#	8F#	8f#	.	4eee'	.	.
8GG#J)	8G#J)	8g#J)	.	.	.	.
=174	=174	=174	=174	=174	=174	=174
4AA	4A	4a	.	4ccc#	.	I
(8FF#L	(8F#L	(8f#L	.	4a	.	.
8EE	8E	8e	.	.	.	.
8FF#	8F#	8f#	.	4eee	.	.
8GG#J)	8G#J)	8g#J)	.	.	.	.
=175	=175	=175	=175	=175	=175	=175
.	.	.	.	(16qqeee/	.	.
4AA	4A	4a	.	(4aaa)	.	.
(8FF#L	(8F#L	(8f#L	.	4.a	.	.
8EE	8E	8e	.	.	.	.
8FF#	8F#	8f#	.	.	.	.
8GG#J)	8G#J)	8g#J)	.	8eee)	.	.
=176	=176	=176	=176	=176	=176	=176
!LO:TX:a:i:t=dim.	!LO:TX:a:i:t=dim.	!LO:TX:a:i:t=dim.	!	!LO:TX:a:i:t=dim.	!	!
4AA	4A	4a	.	4ddd'	.	V7
(8FF#L	(8F#L	(8f#L	.	4b'	.	.
8EE	8E	8e	.	.	.	.
8FF#	8F#	8f#	.	4eee'	.	.
8GG#J)	8G#J)	8g#J)	.	.	.	.
=177	=177	=177	=177	=177	=177	=177
4AA	4A	4a	.	4ccc#	.	I
(8FF#L	(8F#L	(8f#L	.	4a	.	.
8EE	8E	8e	.	.	.	.
8FF#	8F#	8f#	.	4eee	.	.
8GG#J)	8G#J)	8g#J)	.	.	.	.
=178	=178	=178	=178	=178	=178	=178
4AA	4A	4a	.	4ddd	.	V7
(8FF#L	(8F#L	(8f#L	.	4b	.	.
8EE	8E	8e	.	.	.	.
8FF#	8F#	8f#	.	4eee	.	.
8GG#J)	8G#J)	8g#J)	.	.	.	.
=179	=179	=179	=179	=179	=179	=179
.	.	.	.	(16qqeee/	.	I
4AA	4A	4a	.	(4aaa)	.	.
(8FF#L	(8F#L	(8f#L	.	4.a	.	.
8EE	8E	8e	.	.	.	.
8FF#	8F#	8f#	.	.	.	.
8GG#J)	8G#J)	8g#J)	.	8eee)	.	.
=180	=180	=180	=180	=180	=180	=180
!	!LO:TX:a:Bi:t=p	!LO:TX:a:Bi:t=p	!	!LO:TX:a:Bi:t=p	!	!
4AA	4A	4a	.	4ddd'	.	V7
(8FF#L	(8F#L	(8f#L	.	4b'	.	.
8EE	8E	8e	.	.	.	.
8FF#	8F#	8f#	.	4eee'	.	.
8GG#J)	8G#J)	8g#J)	.	.	.	.
=181	=181	=181	=181	=181	=181	=181
!	!LO:TX:b:i:t=sempre	!LO:TX:a:i:t=sempre	!	!LO:TX:a:i:t=sempre	!	!
4AA	4A	4a	.	4ccc#	.	I
(8FF#L	(8F#L	(8f#L	.	4a	.	.
8EE	8E	8e	.	.	.	.
8FF#	8F#	8f#	.	4eee	.	.
8GG#J)	8G#J)	8g#J)	.	.	.	.
=182	=182	=182	=182	=182	=182	=182
!	!LO:TX:a:Bi:t=p	!	!	!LO:TX:a:Bi:t=p	!	!
!LO:TX:a:Bi:t=p	!LO:TX:a:i:t=piu	!LO:TX:a:i:t=piu	!	!LO:TX:b:i:t=piu	!	!
4AA	4A	4a	.	4ccc#	.	.
(8FF#L	(8F#L	(8f#L	.	4a	.	.
8EE	8E	8e	.	.	.	.
8FF#	8F#	8f#	.	4eee	.	.
8GG#J)	8G#J)	8g#J)	.	.	.	.
=183	=183	=183	=183	=183	=183	=183
.	.	.	.	(16qqeee/	.	.
4AA	4A	4a	.	(4aaa)	.	.
(8FF#L	(8F#L	(8f#L	.	2a)	.	.
8EE	8E	8e	.	.	.	.
8FF#	8F#	8f#	.	.	.	.
8GG#J)	8G#J)	8g#J)	.	.	.	.
=184	=184	=184	=184	=184	=184	=184
4AA	4A	4a	.	4cc#	.	.
(8FF#L	(8F#L	(8f#L	.	4A	.	.
8EE	8E	8e	.	.	.	.
8FF#	8F#	8f#	.	4ee	.	.
8GG#J)	8G#J)	8g#J)	.	.	.	.
=185	=185	=185	=185	=185	=185	=185
.	.	.	.	(32qqee/	.	.
4AA	4A	4a	.	(8aaL)	.	.
.	.	.	.	[8aJ)	.	.
(8FF#L	(8F#L	(8f#L	.	2A 2a]	.	.
8EE	8E	8e	.	.	.	.
8FF#	8F#	8f#	.	.	.	.
8GG#J)	8G#J)	8g#J)	.	.	.	.
=186	=186	=186	=186	=186	=186	=186
4AA	4A	4a	.	4ccc#	.	.
(8FF#L	(8F#L	(8f#L	.	4a	.	.
8EE	8E	8e	.	.	.	.
8FF#	8F#	8f#	.	4eee	.	.
8GG#J)	8G#J)	8g#J)	.	.	.	.
=187	=187	=187	=187	=187	=187	=187
!LO:TX:a:Bi:t=pp	!LO:TX:a:Bi:t=pp	!LO:TX:a:Bi:t=pp	!	!LO:TX:a:Bi:t=pp	!	!
.	.	.	.	(16qqeee/	.	.
4AA	4A	4a	.	(4aaa)	.	.
(8FF#L	(8F#L	(8f#L	.	2a)	.	.
8EE	8E	8e	.	.	.	.
8FF#	8F#	8f#	.	.	.	.
8GG#J)	8G#J)	8g#J)	.	.	.	.
=188	=188	=188	=188	=188	=188	=188
.	.	.	.	(16qqe/	.	.
4AA	4A	4a	.	(4a)	.	.
(8FF#L	(8F#L	(8f#L	.	2A)	.	.
8EE	8E	8e	.	.	.	.
8FF#	8F#	8f#	.	.	.	.
8GG#J)	8G#J)	8g#J)	.	.	.	.
=189	=189	=189	=189	=189	=189	=189
.	.	.	.	(16qqe/	.	.
4AA	4A	4a	.	(4a)	.	.
(8FF#L	(8F#L	(8f#L	.	(2A)	.	.
8EE	8E	8e	.	.	.	.
8FF#	8F#	8f#	.	.	.	.
8GG#J)	8G#J)	8g#J)	.	.	.	.
=190	=190	=190	=190	=190	=190	=190
!	!	!LO:TX:b:Bi:t=ppp	!	!	!	!
!LO:TX:a:Bi:t=ppp	!	!LO:TX:a:Bi:t=ppp	!	!	!	!
4AA	4A	4a	.	4A)	.	.
(8FF#L	(8F#L	(8f#L	.	(8f#L	.	.
8EE	8E	8e	.	8e	.	.
8FF#	8F#	8f#	.	8f#	.	.
8GG#J	8G#J	8g#J	.	8g#J	.	.
=191	=191	=191	=191	=191	=191	=191
4AA')	4A')	4a')	.	4a')	.	I]
(8FF#L	(8F#L	(8f#L	.	(8f#L	.	@none
8EE	8E	8e	.	8e	.	.
8FF#	8F#	8f#	.	8f#	.	.
8GGnJ	8GnJ	8gnJ	.	8gnJ	.	.
=192	=192	=192	=192	=192	=192	=192
4AA')	4A')	4a')	.	4a')	.	.
(8FF#L	(8F#L	(8f#L	.	(8f#L	.	.
8EE	8E	8e	.	8e	.	.
8FFn	8Fn	8fn	.	8fn	.	.
8GGnJ	8GnJ	8gnJ	.	8gnJ	.	.
=193||	=193||	=193||	=193||	=193||	=193||	=193||
*k[b-]	*k[b-]	*k[b-]	*	*k[b-]	*	*
*F:	*F:	*F:	*	*F:	*	*
4AA')	4A')	4a')	.	4a')	.	.
(8FFL	(8FL	(8fL	.	(8fL	.	I.I
8EE	8E	8e	.	8e	.	.
8FF	8F	8f	.	8f	.	.
[8GGJ)	[8GJ)	[8gJ)	.	[8gJ)	.	.
=194	=194	=194	=194	=194	=194	=194
(4GG]	(4G]	(4g]	.	(4g]	.	.
[2AA	[2A	[2a	.	[2a	.	.
=195	=195	=195	=195	=195	=195	=195
4AA]	4A]	4a]	.	4a]	.	.
[2GG	[2G	[2g	.	[2g	.	@none
=196	=196	=196	=196	=196	=196	=196
4GG]	4G]	4g]	.	4g]	.	.
[2FF	[2F	[2f	.	[2f	.	.
=197	=197	=197	=197	=197	=197	=197
4FF]	4F]	4f]	.	4f]	.	.
[2GG	[2G	[2g	.	[2g	.	.
=198	=198	=198	=198	=198	=198	=198
(4GG])	4G])	4g])	.	(4g])	.	.
[2G)	[2G	[2g	.	[2gg)	.	.
=199	=199	=199	=199	=199	=199	=199
(4G]	(4G]	(4g]	.	(4gg]	.	.
[2g)	[2g)	[2gg)	.	[2ggg)	.	.
=200	=200	=200	=200	=200	=200	=200
(4g]	(4g]	(4gg]	.	(4ggg]	.	.
[2G)	[2G)	[2g)	.	[2gg)	.	.
=201	=201	=201	=201	=201	=201	=201
(4G]	4G]	(4g]	.	(4gg]	.	.
2GG)	2G	4G	.	[2g)	.	.
.	.	[4c)	.	.	.	.
=202	=202	=202	=202	=202	=202	=202
!LO:TX:a:Bi:t=p	!	!	!	!	!	!
!LO:TX:a:Bi:t=p	!	!	!	!	!	!
!LO:TX:b:i:t=meno	!LO:TX:a:Bi:t=p	!LO:TX:a:Bi:t=p	!	!	!	!
!LO:TX:a:i:t=meno	!LO:TX:a:i:t=meno	!LO:TX:a:i:t=meno	!	!	!	!
4FF'	2.F	2c]	.	4g]	.	I(+2)
4r	.	.	.	[2a	.	I6
4AA'	.	[4c	.	.	.	.
=203	=203	=203	=203	=203	=203	=203
4BB-'	2.E	2c]	.	4a]	.	V2(6)
4r	.	.	.	[4g	.	V2
4C'	.	[4c	.	4g_	.	V
=204	=204	=204	=204	=204	=204	=204
4D	2.F	2c]	.	4g]	.	vi7(11)
4r	.	.	.	[4f	.	vi7
4C	.	[4c	.	4f_	.	vi2
=205	=205	=205	=205	=205	=205	=205
4BB-	2.E	2c]	.	4f]	.	V2(+4)
4r	.	.	.	[2g	.	V64
4GG	.	[4c	.	.	.	.
=206	=206	=206	=206	=206	=206	=206
4FF	2.F	2c]	.	4g]	.	I(+2)
4r	.	.	.	[2a	.	I6
4AA	.	[4c	.	.	.	.
=207	=207	=207	=207	=207	=207	=207
4BB-	2.E	2c]	.	4a]	.	V2(6)
4r	.	.	.	[2g	.	V
4C	.	4c	.	.	.	.
=208	=208	=208	=208	=208	=208	=208
4D'	4F'	4A'	.	4g']	.	vi(11)
4DD'	4F'	4A'	.	4f'	.	vi
4CC'	4E'	4e'	.	4g'	.	V
=209	=209	=209	=209	=209	=209	=209
!	!LO:TX:b:Bi:t=pp	!LO:TX:b:Bi:t=pp	!	!LO:TX:b:Bi:t=pp	!	!
4FF'	4F'	4A'	.	4f'	.	I\\
4d'	4a'	4ff'	.	4r	.	vi
4c'	4ee'	4gg'	.	[4ccc	.	V
=210	=210	=210	=210	=210	=210	=210
4f	4a'	4ff'	.	2ccc]	.	I
4r	4F'	[2aa	.	.	.	.
4A	[4f	.	.	[4ccc	.	I6
=211	=211	=211	=211	=211	=211	=211
4B-	4f]	4aa]	.	2ccc]	.	V2
4r	4e	[2gg	.	.	.	.
4c	4b-	.	.	[4ccc	.	V7
=212	=212	=212	=212	=212	=212	=212
4d	4a	4gg]	.	2ccc]	.	vi43
4r	4A	[2ff	.	.	.	.
4c	4a	.	.	[4ccc	.	I64
=213	=213	=213	=213	=213	=213	=213
4B-	4d	4ff]	.	2ccc]	.	V2
4r	4b-	[2gg	.	.	.	.
4G	4e	.	.	[4ccc	.	V64
=214	=214	=214	=214	=214	=214	=214
4F	4a	4gg]	.	2ccc]	.	I
4r	4c	[2aa	.	.	.	.
4A	[4f	.	.	[4ccc	.	I6
=215	=215	=215	=215	=215	=215	=215
4B-	4f]	4aa]	.	2ccc]	.	V65
4r	4E	[2gg	.	.	.	.
4c	4e	.	.	[4ccc	.	V
=216	=216	=216	=216	=216	=216	=216
4d	4A	4gg']	.	4ccc']	.	vi7(4)
4D	4a	4ff'	.	4ddd'	.	vi
4C	4c	4gg'	.	4eee'	.	V
=217	=217	=217	=217	=217	=217	=217
4F	4F	4ff'	.	4fff'	.	I\\
2EE-X^	2E-X^	2e-X^	.	2e-X^	.	V2/IV
=218!|:	=218!|:	=218!|:	=218!|:	=218!|:	=218!|:	=218!|:
!LO:TX:a:i:t=dim.	!	!	!	!	!	!
!LO:TX:a:i:t=dim.	!	!	!	!	!	!
4r	4r	2.r	.	2.r	.	V2/IV
2EE-X	2E-X	.	.	.	.	.
=219	=219	=219	=219	=219	=219	=219
2EE-X	2E-X	2.r	.	2.r	.	.
4EE-	4E-	.	.	.	.	.
=220	=220	=220	=220	=220	=220	=220
!	!	!LO:TX:a:i:t=dim.	!	!LO:TX:a:i:t=dim.	!	!
4r	4r	4r	.	4r	.	.
2EE-X	2E-X	2e-X	.	2e-X	.	.
=221	=221	=221	=221	=221	=221	=221
2EE-X	2E-X	2e-X	.	2e-X	.	.
4EE-	4E-	4e-	.	4e-	.	.
=222	=222	=222	=222	=222	=222	=222
4r	4r	4r	.	4r	.	.
2EE-X	2E-X	2e-X	.	2e-X	.	.
=223	=223	=223	=223	=223	=223	=223
!LO:TX:b:Bi:t=p	!LO:TX:a:Bi:t=p	!LO:TX:a:Bi:t=p	!	!LO:TX:a:Bi:t=p	!	!
4r	4r	4r	.	4r	.	.
2EE-X	2E-X	2e-X	.	2e-X	.	.
=224	=224	=224	=224	=224	=224	=224
!LO:TX:b:Bi:t=pp	!LO:TX:a:Bi:t=pp	!LO:TX:a:Bi:t=pp	!	!LO:TX:b:Bi:t=pp	!	!
4r	4r	4r	.	4r	.	.
2EEn	2En	2en	.	2en	.	V6
=225	=225	=225	=225	=225	=225	=225
!LO:TX:a:i:t=cresc.	!	!LO:TX:a:i:t=cresc.	!	!LO:TX:a:i:t=cresc.	!	!
4r	4r	4r	.	4r	.	.
[2CC	2E	2e	.	2e	.	V[V6
=226	=226	=226	=226	=226	=226	=226
!	!	!	!	!LO:TX:a:i:t=cresc.	!	!
4CC]	4F	4r	.	4r	.	I
(4C	((2C	4r	.	[2a	.	I64
[4CC 4A	.	([4f	.	.	.	.
=227	=227	=227	=227	=227	=227	=227
!	!	!LO:TX:a:i:t=cresc.	!	!	!	!
4CC] 4Bn)	4C))	2f]	.	4a]	.	#vii%7/V
(4C	(2C	.	.	[2g	.	V
[4CC 4c	.	4e	.	.	.	.
=228	=228	=228	=228	=228	=228	=228
4CC] 4d)	4C)	2A	.	4g]	.	vi64(4)
(4C	(2C	.	.	[2f	.	i64
[4CC 4c	.	4A-X	.	.	.	.
=229	=229	=229	=229	=229	=229	=229
2CC] 4Bn)	4C)	2d	.	4f]	.	#vii%7/V
.	(4C	.	.	[2g	.	viio2
[4CC	4D-X 4B-X	[4e)	.	.	.	.
=230	=230	=230	=230	=230	=230	=230
2CC]	4C) 4A	4e]	.	4g]	.	I(97)
.	(4C (2C	4A	.	[2a	.	I6
[4CC	4c	[4f	.	.	.	.
=231	=231	=231	=231	=231	=231	=231
!	!	!	!	!LO:TX:b:i:t=cresc.	!	!
2CC]	4Bn) 4C)	4f]	.	4a]	.	#vii%7/V
.	(4C (2C	4f	.	[2g	.	V
[4CC	4c	4e	.	.	.	.
=232	=232	=232	=232	=232	=232	=232
2CC]	4Bn) 4C)	[4A-X	.	4g]	.	#viio(6)/V
.	(4C (2C	4A-] 4d	.	4f'	.	#viio/V
[4CC	4B-X	4G 4e	.	4g'	.	viio6
=233	=233	=233	=233	=233	=233	=233
!	!LO:TX:b:Bi:t=f	!	!	!	!	!
4CC]	4Bn) 4C)	4A	.	4f'	.	I]\\
4FF'	4F	4r	.	4r	.	I
[4GG	(4G	4r	.	4r	.	.
=234	=234	=234	=234	=234	=234	=234
!	!	!LO:TX:b:Bi:t=f	!	!LO:TX:a:Bi:t=f	!	!
4GG]	4G)	4f'	.	4ff'	.	.
[2AA	[2A	4r	.	4r	.	I6
.	.	4a'	.	4aa'	.	.
=235	=235	=235	=235	=235	=235	=235
4AA]	4A]	4b-'	.	4bb-'	.	ii(2)
[2GG	[2G	4r	.	4r	.	ii
.	.	4cc	.	4ccc	.	.
=236	=236	=236	=236	=236	=236	=236
4GG]	4G]	4dd	.	4ddd	.	vi6(4)
[2FF	[2F	4r	.	4r	.	vi6
.	.	4cc	.	4ccc	.	.
=237	=237	=237	=237	=237	=237	=237
4FF]	4F]	4b-	.	4bb-	.	.
[2GG	[2G	4r	.	4r	.	ii
.	.	4g	.	4gg	.	.
=238	=238	=238	=238	=238	=238	=238
!LO:TX:a:i:t=dim.	!LO:TX:a:i:t=dim.	!	!	!	!	!
4GG]	4G]	4f	.	4ff	.	.
[2AA	[2A	4r	.	4r	.	I6
.	.	4a	.	4aa	.	.
=239	=239	=239	=239	=239	=239	=239
!	!	!LO:TX:a:i:t=dim.	!	!LO:TX:a:i:t=dim.	!	!
4AA]	4A]	4b-	.	4bb-	.	.
[2GG	[2G	4r	.	4r	.	ii
.	.	4cc	.	4ccc	.	.
=240	=240	=240	=240	=240	=240	=240
4GG]	4G]	4dd	.	4ddd	.	ii
4FF'	4F'	4r	.	4r	.	.
4GG'	4G'	4e 4cc	.	4ccc	.	V64
=241	=241	=241	=241	=241	=241	=241
!LO:TX:a:Bi:t=pp	!LO:TX:a:Bi:t=pp	!LO:TX:a:Bi:t=pp	!	!LO:TX:a:Bi:t=pp	!	!
4FF'	4F'	4a' 4cc	.	4ccc'	.	I\\
4r	4A'	4cc'	.	4ccc'	.	I6
4r	4F'	4a'	.	4eee-X'	.	V7/IV
=242	=242	=242	=242	=242	=242	=242
4r	4B-'	4f'	.	4ddd'	.	IV
4FF'	4r	4r	.	4r	.	.
4GG'	4r	4r	.	4r	.	.
=243	=243	=243	=243	=243	=243	=243
4FF'	4r	4r	.	4r	.	.
4r	4B-'	4f' 4dd	.	4eeen'	.	IV(+#4)
4r	4B-'	4f' 4dd	.	4fff'	.	IV
=244	=244	=244	=244	=244	=244	=244
4r	4f	4a	.	4ccc'	.	I\\
4FF'	4f	4ff	.	4r	.	.
4EE-X'	4g	4gg	.	4r	.	iv6/ii
=245	=245	=245	=245	=245	=245	=245
4DD'	4f#X	4ff#X	.	4r	.	V/ii
4EEn'	4g	4bb-	.	4ddd	.	vii%7
4FF#X'	4a	4aa	.	4ccc	.	#viio/ii
=246	=246	=246	=246	=246	=246	=246
4GG	4d	4aa'	.	4ccc'	.	ii(119)
4GG	4e	4gg'	.	4bb-'	.	viio6
4AA	4c	4ff'	.	4aa'	.	I6
=247	=247	=247	=247	=247	=247	=247
4BB-	(4d	(4ff	.	(4aa	.	IVM7
4BB-	4G)	4dd)	.	4bb-)	.	ii6
4C	4c'	4b-' 4ee	.	4gg'	.	V7
=248	=248	=248	=248	=248	=248	=248
4FF	4c	4a'	.	4aa'	.	I\\
4r	4r	4f'	.	4ff'	.	I
4r	4r	4g'	.	4gg'	.	V
=249	=249	=249	=249	=249	=249	=249
4r	4r	4f	.	4ff	.	I
*clefC4	*	*	*	*	*	*
4c'	4A'	4r	.	4r	.	V65/IV
4e-X'	4c'	4r	.	4r	.	.
=250	=250	=250	=250	=250	=250	=250
4d	4B-	4r	.	4r	.	IV6
4r	4r	4f	.	4ff	.	.
4r	4r	4g	.	4gg	.	.
=251	=251	=251	=251	=251	=251	=251
4r	4r	4f	.	4ff	.	.
4e	4B-	4r	.	4r	.	V2
4f	4B-	4r	.	4r	.	.
=252	=252	=252	=252	=252	=252	=252
4c	4A	4r	.	4r	.	I6
4r	4r	4f	.	4ff	.	.
4r	4r	4g	.	4gg	.	.
=253	=253	=253	=253	=253	=253	=253
4r	4r	4f	.	4ff	.	.
4e-X	4c	4f#X	.	4ff#X	.	#viio43/ii
4d	4B-	4g	.	4gg	.	ii6
=254	=254	=254	=254	=254	=254	=254
4d'	4B-	4g	.	4gg	.	.
4c'	4A	4g	.	4gg	.	.
4B-'	4G	4cc	.	4ccc	.	V43
=255	=255	=255	=255	=255	=255	=255
(4A	4F	4cc	.	4ccc	.	I6
4B-)	4G	4cc	.	4ccc	.	V43
4G'	4E	4cc	.	4ccc	.	V6
=256	=256	=256	=256	=256	=256	=256
4A'	4F'	4cc'	.	4ccc'	.	I
4G'	4e'	4c'	.	4bb-'	.	V43
4A'	4f'	4cc'	.	4aa'	.	I6
=257	=257	=257	=257	=257	=257	=257
!	!LO:TX:a:i:t=cresc.	!LO:TX:a:i:t=cresc.	!	!LO:TX:a:i:t=cresc.	!	!
(4B-	(4d	(4cc	.	(4aa	.	IV(+2+7)
*clefF4	*	*	*	*	*	*
4BB-)	4D)	4g) 4dd	.	4bb-)	.	ii6
4C'	4E'	4e'	.	4gg'	.	V
=258	=258	=258	=258	=258	=258	=258
4C'	(4E	(4b-	.	(4gg	.	V7
4CC'	4F)	4a)	.	4aa)	.	V(64)
4CC'	4A'	4f' 4a	.	4ff'	.	.
=259	=259	=259	=259	=259	=259	=259
4CC'	(4B-	(4g	.	(4ee	.	V7
4CC'	4A)	4f)	.	4ff)	.	V(64)
4CC'	4G'	4e'	.	4gg'	.	V
=260	=260	=260	=260	=260	=260	=260
!	!LO:TX:a:i:t=dim.	!LO:TX:a:i:t=dim.	!	!LO:TX:a:i:t=dim.	!	!
(4CC	(4G	(4b-'	.	(4ee	.	V7
4DD)	4F)	4B-')	.	4ff)	.	IV6
4EE'	4E'	4b-'	.	4gg'	.	viio
=261	=261	=261	=261	=261	=261	=261
4FF'	4A'	4a'	.	4cc	.	I
4GG'	4B-'	4g'	.	4cc	.	V43
4AA'	4c'	4f'	.	4cc	.	I6
=262	=262	=262	=262	=262	=262	=262
(4CC	(4G	(4B-	.	(4ee	.	V7
4DD)	4F)	4b-)	.	4ff)	.	IV6
4EE'	4E'	4b-	.	4gg'	.	viio
=263	=263	=263	=263	=263	=263	=263
!	!	!LO:TX:b:i:t=sempre	!	!	!	!
!	!	!LO:TX:a:i:t=sempre	!	!	!	!
!LO:TX:b:i:t=sempre	!LO:TX:b:i:t=sempre	!LO:TX:a:Bi:t=p	!	!	!	!
!LO:TX:a:Bi:t=p	!LO:TX:a:Bi:t=p	!LO:TX:a:Bi:t=p	!	!	!	!
4FF'	4A'	4a'	.	4cc	.	I
4GG'	4B-'	4g'	.	4cc	.	V43
4AA'	4c'	4f'	.	4cc	.	I6
=264	=264	=264	=264	=264	=264	=264
!LO:TX:a:i:t=piu	!LO:TX:a:i:t=piu	!	!	!LO:TX:a:i:t=piu	!	!
(4CC	(4G	(4B-	.	(4ee	.	V7
4DD)	4F)	4b-)	.	4ff)	.	IV6
4EE'	4E'	4b-	.	4gg'	.	viio
=265	=265	=265	=265	=265	=265	=265
!LO:TX:a:Bi:t=p	!	!	!	!	!	!
!LO:TX:a:Bi:t=p	!LO:TX:a:Bi:t=p	!	!	!LO:TX:a:Bi:t=p	!	!
4FF'	4A'	4a'	.	4cc	.	I
4GG'	4B-'	4g'	.	4cc	.	V43
4AA'	4c'	4f'	.	4cc	.	I6
=266	=266	=266	=266	=266	=266	=266
!	!LO:TX:a:Bi:t=pp	!	!	!	!	!
!LO:TX:a:Bi:t=pp	!LO:TX:a:Bi:t=pp	!	!	!LO:TX:a:Bi:t=pp	!	!
(4CC	(4G	(4B-	.	(4ee	.	V7
4DD)	4F)	4b-)	.	4ff)	.	IV6
4EE'	4E'	4b-	.	4gg'	.	viio
=267	=267	=267	=267	=267	=267	=267
!	!	!LO:TX:a:Bi:t=f	!	!	!	!
!LO:TX:a:Bi:t=f	!LO:TX:a:Bi:t=f	!LO:TX:a:Bi:t=f	!	!	!	!
4FF	4F	4a	.	4cc	.	I\\
2EE-X^	2E-X^	2e-X^	.	2e-X^	.	V2/IV
=268:|!	=268:|!	=268:|!	=268:|!	=268:|!	=268:|!	=268:|!
!LO:TX:a:Bi:t=p	!LO:TX:a:Bi:t=p	!LO:TX:a:Bi:t=p	!	!LO:TX:a:Bi:t=p	!	!
4FF	4F	4a	.	4cc	.	I\\
2FF^ 2AA	2C^ 2c	2A^	.	4r	.	I
.	.	.	.	4r	.	.
=269	=269	=269	=269	=269	=269	=269
!LO:TX:b:i:t=dim	!	!	!	!	!	!
!LO:TX:a:i:t=dim	!LO:TX:a:i:t=dim	!	!	!	!	!
4r	4r	4r	.	2.r	.	.
2FF 2AA	2C 2c	2A	.	.	.	.
=270	=270	=270	=270	=270	=270	=270
2FF 2AA	2C 2c	2A	.	2.r	.	.
4FF 4AA	4C 4c	4A	.	.	.	.
=271	=271	=271	=271	=271	=271	=271
!	!LO:TX:a:Bi:t=p	!LO:TX:a:Bi:t=p	!	!LO:TX:a:Bi:t=p	!	!
4r	4r	4r	.	4r	.	.
*clefG2	*	*	*	*	*	*
2f	2a	2cc 2aa	.	2ccc	.	.
=272	=272	=272	=272	=272	=272	=272
!	!LO:TX:a:i:t=piu	!	!	!	!	!
!	!LO:TX:a:i:t=piu	!	!	!LO:TX:a:i:t=piu	!	!
2f	2a	2cc 2aa	.	2ccc	.	.
4f	4a	4cc 4aa	.	4ccc	.	.
=273	=273	=273	=273	=273	=273	=273
!	!LO:TX:a:Bi:t=pp	!LO:TX:a:Bi:t=pp	!	!LO:TX:a:Bi:t=pp	!	!
!	!LO:TX:a:Bi:t=p	!LO:TX:a:Bi:t=p	!	!LO:TX:a:Bi:t=p	!	!
4r	4r	4r	.	4r	.	.
2f	2a	2cc 2aa	.	2ccc	.	.
=274	=274	=274	=274	=274	=274	=274
!	!LO:TX:a:Bi:t=f	!LO:TX:a:Bi:t=f	!	!LO:TX:a:Bi:t=f	!	!
4f	4f 4a	4cc 4aa	.	4ccc	.	I\\
4r;	4r;	4r;	.	4r;	.	.
4r	4r	4r	.	4r	.	.
==	==	==	==	==	==	==
*-	*-	*-	*-	*-	*-	*-
!!!system-decoration: [(s1,s2,s3,s4)]
!!!YEM: <font size="10"/><i>dim.</i>
